X:135
T:Wearmouth Lasses,aka. Le4.135
T:Yarmouth Lasses,aka. Le4.135
T:Untitled in MS. Le4.135
M:6/8
L:1/8
Q:1/4=100
B:L.Leadley MS#4 c1850
Z:Village Music Project, 2016 Ruairidh Greig
K:A
e|aga ece|sdBd cBA|EAc cBc|deff2e|
aga ecwe|dBd cBA|EAc cBc|edBc2A:|
|:D|EAc cBc|def f2e|EAc cBc|def f2e|
aga ece|dBd cBA|EAc cBc|edBA2:|

